svgs/light/circle-envelope.svg

<svg xmlns="http://www.w3.org/2000/svg" viewBox="0 0 512 512"><!-- Font Awesome Pro 6.0.0-alpha2 by @fontawesome - https://fontawesome.com License - https://fontawesome.com/license (Commercial License) --><path d="M256 16C123.451 16 16 123.451 16 256S123.451 496 256 496S496 388.549 496 256S388.549 16 256 16ZM256 464C141.309 464 48 370.691 48 256S141.309 48 256 48S464 141.309 464 256S370.691 464 256 464ZM352 160H160C142.328 160 128 174.326 128 192V320C128 337.674 142.328 352 160 352H352C369.674 352 384 337.674 384 320V192C384 174.326 369.674 160 352 160ZM352 320H160V245.316L249.297 286.531C251.422 287.5 253.719 288 256 288S260.578 287.5 262.703 286.531L352 245.316V320ZM352 210.066L256 254.375L160 210.066V192H352V210.066Z"/></svg>

<svg xmlns="http://www.w3.org/2000/svg" viewBox="0 0 512 512"><!--! Font Awesome Pro 6.0.0-alpha3 by @fontawesome - https://fontawesome.com License - https://fontawesome.com/license (Commercial License) --><path d="M352 160H160C142.3 160 128 174.3 128 192v128c0 17.67 14.33 32 32 32h192c17.67 0 32-14.33 32-32V192C384 174.3 369.7 160 352 160zM352 320H160V245.3l89.3 41.21C251.4 287.5 253.7 288 256 288s4.578-.5 6.703-1.469L352 245.3V320zM352 210.1l-96 44.31L160 210.1V192h192V210.1zM256 0C114.6 0 0 114.6 0 256c0 141.4 114.6 256 256 256s256-114.6 256-256C512 114.6 397.4 0 256 0zM256 480c-123.5 0-224-100.5-224-224s100.5-224 224-224s224 100.5 224 224S379.5 480 256 480z"/></svg>
